icons/Idea-Dark.svg

<svg xmlns="http://www.w3.org/2000/svg" width="256" height="256" fill="none" viewBox="0 0 256 256"><rect width="256" height="256" fill="#242938" rx="60"/><path fill="url(#paint0_linear_159_762)" d="M78.5714 184L30.2856 145.714L54.2856 101.143L123.143 128L78.5714 184Z"/><path fill="url(#paint1_linear_159_762)" d="M228 81.4285L224.286 197.143L147.429 228L101.143 198.286L168.857 128L139.143 63.1428L165.714 31.1428L228 81.4285Z"/><path fill="url(#paint2_linear_159_762)" d="M228 81.4285L167.143 153.429L139.143 63.1428L165.714 31.1428L228 81.4285Z"/><path fill="url(#paint3_linear_159_762)" d="M124.286 194L44 223.143L56.8571 178L73.7143 122.571L28 107.143L56.8571 28L119.714 35.7143L181.429 106.286L124.286 194Z"/><path fill="#000" d="M190.571 66.5715H67.1428V190H190.571V66.5715Z"/><path fill="#fff" d="M124.857 166.857H78.5713V174.571H124.857V166.857Z"/><path fill="#fff" d="M112 92.0001V82.5715H86.2856V92.0001H93.7142V124.286H86.2856V133.714H112V124.286H104.857V92.0001H112Z"/><path fill="#fff" d="M136.571 134.572C132.571 134.572 129.143 133.714 126.571 132.286C124 130.857 121.714 128.857 120 126.857L127.143 118.857C128.571 120.572 130 121.714 131.429 122.572C132.857 123.429 134.571 124 136.286 124C138.286 124 140 123.429 141.429 122C142.571 120.572 143.143 118.572 143.143 115.429V82.5715H154.571V116C154.571 119.143 154.286 121.714 153.429 124C152.571 126.286 151.429 128 149.714 129.714C148.286 131.143 146.286 132.572 144 133.143C141.714 134 139.429 134.572 136.571 134.572Z"/><defs><linearGradient id="paint0_linear_159_762" x1="30.256" x2="123.192" y1="142.541" y2="142.541" gradientUnits="userSpaceOnUse"><stop offset=".258" stop-color="#F97A12"/><stop offset=".459" stop-color="#B07B58"/><stop offset=".724" stop-color="#577BAE"/><stop offset=".91" stop-color="#1E7CE5"/><stop offset="1" stop-color="#087CFA"/></linearGradient><linearGradient id="paint1_linear_159_762" x1="101.621" x2="254.926" y1="99.086" y2="183.914" gradientUnits="userSpaceOnUse"><stop stop-color="#F97A12"/><stop offset=".072" stop-color="#CB7A3E"/><stop offset=".154" stop-color="#9E7B6A"/><stop offset=".242" stop-color="#757B91"/><stop offset=".334" stop-color="#537BB1"/><stop offset=".432" stop-color="#387CCC"/><stop offset=".538" stop-color="#237CE0"/><stop offset=".655" stop-color="#147CEF"/><stop offset=".792" stop-color="#0B7CF7"/><stop offset="1" stop-color="#087CFA"/></linearGradient><linearGradient id="paint2_linear_159_762" x1="208.651" x2="165.972" y1="150.615" y2="23.088" gradientUnits="userSpaceOnUse"><stop stop-color="#FE315D"/><stop offset=".078" stop-color="#CB417E"/><stop offset=".16" stop-color="#9E4E9B"/><stop offset=".247" stop-color="#755BB4"/><stop offset=".339" stop-color="#5365CA"/><stop offset=".436" stop-color="#386DDB"/><stop offset=".541" stop-color="#2374E9"/><stop offset=".658" stop-color="#1478F3"/><stop offset=".794" stop-color="#0B7BF8"/><stop offset="1" stop-color="#087CFA"/></linearGradient><linearGradient id="paint3_linear_159_762" x1="58.63" x2="186.639" y1="75.066" y2="286.8" gradientUnits="userSpaceOnUse"><stop stop-color="#FE315D"/><stop offset=".04" stop-color="#F63462"/><stop offset=".104" stop-color="#DF3A71"/><stop offset=".167" stop-color="#C24383"/><stop offset=".291" stop-color="#AD4A91"/><stop offset=".55" stop-color="#755BB4"/><stop offset=".917" stop-color="#1D76ED"/><stop offset="1" stop-color="#087CFA"/></linearGradient></defs></svg>

<svg xmlns="http://www.w3.org/2000/svg" width="256" height="256" fill="none" viewBox="0 0 256 256"><rect width="256" height="256" fill="#242938" rx="60"/><path fill="url(#a)" d="M78.57 184 30.3 145.71l24-44.57L123.14 128z"/><path fill="url(#b)" d="m228 81.43-3.71 115.71L147.43 228l-46.29-29.71L168.86 128l-29.72-64.86 26.57-32z"/><path fill="url(#c)" d="m228 81.43-60.86 72-28-90.29 26.57-32z"/><path fill="url(#d)" d="M124.29 194 44 223.14 56.86 178l16.85-55.43L28 107.14 56.86 28l62.85 7.71 61.72 70.58z"/><path fill="#000" d="M190.57 66.57H67.14V190h123.43z"/><path fill="#fff" d="M124.86 166.86H78.57v7.71h46.29zM112 92v-9.43H86.29V92h7.42v32.29H86.3v9.42H112v-9.42h-7.14V92zm24.57 42.57c-4 0-7.43-.86-10-2.28a25 25 0 0 1-6.57-5.43l7.14-8a17 17 0 0 0 4.29 3.71 9.6 9.6 0 0 0 4.86 1.43c2 0 3.71-.57 5.14-2 1.14-1.43 1.71-3.43 1.71-6.57V82.57h11.43V116c0 3.14-.28 5.71-1.14 8s-2 4-3.72 5.71a13 13 0 0 1-5.71 3.43 20 20 0 0 1-7.43 1.43"/><defs><linearGradient id="a" x1="30.26" x2="123.19" y1="142.54" y2="142.54" gradientUnits="userSpaceOnUse"><stop offset=".26" stop-color="#F97A12"/><stop offset=".46" stop-color="#B07B58"/><stop offset=".72" stop-color="#577BAE"/><stop offset=".91" stop-color="#1E7CE5"/><stop offset="1" stop-color="#087CFA"/></linearGradient><linearGradient id="b" x1="101.62" x2="254.93" y1="99.09" y2="183.91" gradientUnits="userSpaceOnUse"><stop stop-color="#F97A12"/><stop offset=".07" stop-color="#CB7A3E"/><stop offset=".15" stop-color="#9E7B6A"/><stop offset=".24" stop-color="#757B91"/><stop offset=".33" stop-color="#537BB1"/><stop offset=".43" stop-color="#387CCC"/><stop offset=".54" stop-color="#237CE0"/><stop offset=".66" stop-color="#147CEF"/><stop offset=".79" stop-color="#0B7CF7"/><stop offset="1" stop-color="#087CFA"/></linearGradient><linearGradient id="c" x1="208.65" x2="165.97" y1="150.62" y2="23.09" gradientUnits="userSpaceOnUse"><stop stop-color="#FE315D"/><stop offset=".08" stop-color="#CB417E"/><stop offset=".16" stop-color="#9E4E9B"/><stop offset=".25" stop-color="#755BB4"/><stop offset=".34" stop-color="#5365CA"/><stop offset=".44" stop-color="#386DDB"/><stop offset=".54" stop-color="#2374E9"/><stop offset=".66" stop-color="#1478F3"/><stop offset=".79" stop-color="#0B7BF8"/><stop offset="1" stop-color="#087CFA"/></linearGradient><linearGradient id="d" x1="58.63" x2="186.64" y1="75.07" y2="286.8" gradientUnits="userSpaceOnUse"><stop stop-color="#FE315D"/><stop offset=".04" stop-color="#F63462"/><stop offset=".1" stop-color="#DF3A71"/><stop offset=".17" stop-color="#C24383"/><stop offset=".29" stop-color="#AD4A91"/><stop offset=".55" stop-color="#755BB4"/><stop offset=".92" stop-color="#1D76ED"/><stop offset="1" stop-color="#087CFA"/></linearGradient></defs></svg>
